!!!COM: Music21
!!!OTL: strathspey_Brisk-Bob
!!!OMV: strathspey_Brisk-Bob
**kern
*clefG2
*k[f#c#]
*b:
*M4/4
=1
8.bL
16cc#Jk
=||
16ddKL
8.bJ
8.ff#L
16bJk
16f#KL
8.bJ
8.bL
16cc#Jk
=
8.ddL
16eeJk
16ff#LL
16ee
16dd
16cc#JJ
16cc#KL
8.ddJ
12aL
12b
12cc#J
=
16ddKL
8.bJ
8.ff#L
16bJk
16f#KL
8.bJ
8.bL
16ddJk
!!linebreak:original
=
16eeKL
8.ggJ
8.ff#L
16eeJk
16ddKL
8.bJ
8.bL
16cc#Jk
=
16ddKL
8.bJ
8.ff#L
16bJk
16f#KL
8.bJ
8.bL
16cc#Jk
=
8.ddL
16bJk
16ff#LL
16ee
16dd
16cc#JJ
4dd
12aL
12b
12cc#J
=
16bKL
8.ddJ
16cc#KL
8.eeJ
16ddKL
8.ff#J
16eeKL
8.ggJ
!!linebreak:original
=
8.ff#L
16ggJk
16ff#LL
16ee
16dd
16cc#JJ
16cc#KL
8.ddJ
8.bL
16cc#Jk
=||
16ddKL
8.bJ
8.ff#L
16bJk
16f#KL
8.bJ
8.bL
16cc#Jk
=
8.ddL
16eeJk
16ff#LL
16ee
16dd
16cc#JJ
16cc#KL
8.ddJ
12aL
12b
12cc#J
=
16ddKL
8.bJ
8.ff#L
16bJk
16f#KL
8.bJ
8.bL
16ddJk
!!linebreak:original
=
16eeKL
8.ggJ
8.ff#L
16eeJk
16ddKL
8.bJ
8.bL
16cc#Jk
=
16ddKL
8.bJ
8.ff#L
16bJk
16f#KL
8.bJ
8.bL
16cc#Jk
=
8.ddL
16bJk
16ff#LL
16ee
16dd
16cc#JJ
4dd
12aL
12b
12cc#J
=
12bL
12cc#
12ddJ
12cc#L
12dd
12eeJ
12ddL
12ee
12ff#J
12eeL
12ff#
12ggJ
!!linebreak:original
=
8.ff#L
16ggJk
16ff#LL
16ee
16dd
16cc#JJ
4dd
8.bL
16ff#Jk
=||
8.bbL
16ff#Jk
8.ggL
16eeJk
8.ff#L
16ddJk
8.eeL
16cc#Jk
=
8.ddL
16ff#Jk
16ff#LL
16ee
16dd
16cc#JJ
16cc#KL
8.ddJ
8.aL
16ff#Jk
=
8.bbL
16ff#Jk
8.ggL
16eeJk
8.ff#L
16ddJk
8.eeL
16cc#Jk
!!linebreak:original
=
8.ddL
16ff#Jk
16ff#LL
16ee
16dd
16cc#JJ
16cc#KL
8.ddJ
8.bL
16ff#Jk
=
8.bbL
16ff#Jk
8.ggL
16eeJk
8.ff#L
16ddJk
8.eeL
16cc#Jk
=
8.ddL
16ff#Jk
16ff#LL
16ee
16dd
16cc#JJ
16cc#KL
8.ddJ
12aL
12b
12cc#J
=
12bL
12cc#
12ddJ
12cc#L
12dd
12eeJ
12ddL
12ee
12ff#J
12eeL
12ff#
12ggJ
!!linebreak:original
=
8.ff#L
16ggJk
16ff#LL
16ee
16dd
16cc#JJ
16cc#KL
8.ddJ
8.bL
16ff#Jk
=||
8.bbL
16ff#Jk
8.ggL
16eeJk
8.ff#L
16ddJk
8.eeL
16cc#Jk
=
8.ddL
16ff#Jk
16ff#LL
16ee
16dd
16cc#JJ
16cc#KL
8.ddJ
8.aL
16ff#Jk
=
8.bbL
16ff#Jk
8.ggL
16eeJk
8.ff#L
16ddJk
8.eeL
16cc#Jk
!!linebreak:original
=
8.ddL
16ff#Jk
16ff#LL
16ee
16dd
16cc#JJ
16cc#KL
8.ddJ
8.bL
16ff#Jk
=
8.bbL
16ff#Jk
8.ggL
16eeJk
8.ff#L
16ddJk
8.eeL
16cc#Jk
=
8.ddL
16ff#Jk
16ff#LL
16ee
16dd
16cc#JJ
16cc#KL
8.ddJ
12aL
12b
12cc#J
=
12bL
12cc#
12ddJ
12cc#L
12dd
12eeJ
12ddL
12ee
12ff#J
12eeL
12ff#
12ggJ
!!linebreak:original
=
8.ff#L
16ggJk
16ff#LL
16ee
16dd
16cc#JJ
12ddL
12cc#
12bJ
12cc#L
12b
12aJ
=
2b
2ryy
=||
*-
